X: 1293
T: An Ghlaiseac
R: strathspey
M: 4/4
K: Dmajor
|:"G"B2B>d "D"A2A>B|d>ef>d (3efe "D7"d<=c|
"G"B2B>d "D"A2A>B|1 "G"d>f"A" (3efe "D"d2"D7"=c2:|2 "G"d>f"A" (3efe "D"d2d>e||
"D"f<a a>f "G"g>ab>g|"D"a>fd>f "A"e>dB>A|"D"f<a a>f "G"g>ab>g|"D"a>f"A" (3efe "D"d2d>e|
"D"f<a a>f "G"g>ab>g|"D"a>fd>f "A"e>dB>A|"G"B2B>d "D"A2A>B|"G"d>f"A" (3efe"D"d2"D7"=c2||

